X:56
T:Elizabeth Brogan's (reel) 
B:CRE1.082 (Eilis Ni Bhrogain)
F:file ID: cre.1/056eliz_b
Q:180
L:1/8
M:4/4
R:reel
K:G
GABG AGAB|GEE2 GED2|GABG AGAB|GEDE G2GD|
GABG AGAB|GE E2 GE D2|GABG AGAB|GEDE G3||
D|G2 Bd edge|dB B2 dBAB|G2 Bd edge|dBAG EG G2|
G2 Bd edge|dB ~B2 dega|bgag efge|dBAG EG G2|]

%%%

